X: 92
T: St. John's Day
T: Parson Darrals Fancy
%R: reel
B: Chas & Sam Thompson "Twenty Four Country Dances for the Year 1776", London 1776, p.46 #2
F: http://www.vwml.org/browse/browse-collections-dance-tune-books/browse-thompsons1776#
Z: 2014 John Chambers <jc:trillian.mit.edu> (added dance description)
N: The 3rd icon (.||) may have a lower dot, overstruck with the 'l' in "left" in the next line.
M: C|
L: 1/8
K: D
% - - - - - - - - - - - - - - - - - - - - - - - - - - - - -
|:\
d2D2 d2cB | AGFG A2GF | (3(GAB) (3(ABc) (3(Bcd) cB | AGFE D4 :|
|:\
fefg fafd | edef egec | dcde dfdB | gfed dcBA |
d2D2 d2cB | AGFG A2GF | (3(GAB) (3(ABc) (3(Bcd) cB | AGFE D4 :|
% - - - - - - - - - - Dance description - - - - - - - - - -
%%begintext align
%% Hands 4 across round .| back again .|. cross over
%% 2 Cu. lead to the top and cast off .|| hands four
%% round at bottom and right hand & left at top :||:
%%endtext

%%sep 1 1 500
%%sep 1 1 500
